X:5
T:Leken hinnes Karolina Wicklund (pols)
R:rorospols
Z:Småviltlaget, på Skuddhold, Track 14
Z:(also Rorostraktom #111)
M:3/4
L:1/8
K:D
|: "D"~f2 (e<d) d>f | "D/A"f>e (e<d) (d>f) |
   "A/E"e>(f g<f) g>a | "Em/B"(g<f) e2- e>(f |
   "A"e>d) (d<c) c>d | "A/E"(c>B) (B<A) A>B |
   "D"A>(G FA) d>f | "A"((3ece) "D"d4 :|
|: "Em"e>(f gf) g>a | "G"(ba) g2- g>(g |
   "D"f>e) (d<c) d>f | "A"(ag) e2- e>(f |
   "A"e>d) (d<c) c>d | "A/E"(c>B) (B<A) A>B |
   "D"A>(G FA) d>f | "A"((3ece) "D"d4 :|
